packages/icon/src/svg/download.icon.svg

<svg viewBox="0 0 24 24" xmlns="http://www.w3.org/2000/svg"><path d="M16.707 9.707L12 14.415 7.293 9.707l1.414-1.414L11 10.586V2h2v8.586l2.293-2.293 1.414 1.414zM15.586 14H22v8H2v-8h6.414l2 2h3.172l2-2zM20 20v-4h-3.586l-2 2H9.586l-2-2H4v4h16z" /></svg>

<?xml version="1.0" encoding="UTF-8"?>
<svg width="24px" height="24px" viewBox="0 0 24 24" version="1.1" xmlns="http://www.w3.org/2000/svg" xmlns:xlink="http://www.w3.org/1999/xlink">
    <!-- Generator: Sketch 46.1 (44463) - http://www.bohemiancoding.com/sketch -->
    <title>Icon/download.icon</title>
    <desc>Created with Sketch.</desc>
    <defs>
        <path d="M16.707,9.707 L12,14.415 L7.293,9.707 L8.707,8.293 L11,10.586 L11,2 L13,2 L13,10.586 L15.293,8.293 L16.707,9.707 Z M15.586,14 L22,14 L22,22 L2,22 L2,14 L8.414,14 L10.414,16 L13.586,16 L15.586,14 Z M20,20 L20,16 L16.414,16 L14.414,18 L9.586,18 L7.586,16 L4,16 L4,20 L20,20 Z" id="path-1"></path>
    </defs>
    <g id="Symbols" stroke="none" stroke-width="1" fill="none" fill-rule="evenodd">
        <g id="Icon/download">
            <mask id="mask-2" fill="white">
                <use xlink:href="#path-1"></use>
            </mask>
            <use id="Combined-Shape" fill="#000000" fill-rule="nonzero" xlink:href="#path-1"></use>
            <g id="Color/Neutral/White" mask="url(#mask-2)" fill="#FFFFFF">
                <rect id="222222-Fill" x="0" y="0" width="24" height="24"></rect>
            </g>
        </g>
    </g>
</svg>
